public/images/home/react-native.svg

<svg width="224" height="80" viewBox="0 0 224 80" fill="none" xmlns="http://www.w3.org/2000/svg">
<path d="M27.156 39.9479C27.156 43.958 31.0404 47.7014 37.1641 49.8115C35.9412 56.0175 36.9451 61.0197 40.2976 62.9687C43.7435 64.9722 48.8773 63.5854 53.75 59.2915C58.4997 63.412 63.2999 65.0335 66.6495 63.0789C70.0923 61.0698 71.1392 55.7284 69.8826 49.3286C76.261 47.2028 79.8288 44.0108 79.8288 39.9479C79.8288 36.0309 75.9374 32.6423 69.8961 30.5458C71.249 23.8815 70.1027 19.0007 66.6112 16.9711C63.2453 15.0144 58.3891 16.7199 53.5696 20.948C48.5555 16.4603 43.7474 15.0902 40.2597 17.1254C36.8969 19.0877 35.9373 24.181 37.1641 30.5017C31.247 32.5814 27.156 36.0468 27.156 39.9479Z" fill="white"/>
<path d="M68.6167 32.6275C68.1188 32.4553 67.6167 32.2958 67.1108 32.1492C67.1947 31.8055 67.2723 31.4604 67.3435 31.1138C68.4834 25.5358 67.7381 21.0422 65.1929 19.5629C62.7528 18.1442 58.7618 19.6235 54.7311 23.1594C54.3339 23.5086 53.9455 23.8679 53.5663 24.2369C53.3124 23.9915 53.054 23.7509 52.7913 23.5152C48.567 19.7341 44.3327 18.1409 41.7903 19.6245C39.3524 21.0472 38.6303 25.2718 39.6565 30.5581C39.7586 31.0816 39.8739 31.6024 40.0022 32.12C39.4031 32.2915 38.8245 32.4743 38.2709 32.6688C33.3185 34.4093 30.1556 37.1374 30.1556 39.9669C30.1556 42.8895 33.5508 45.8208 38.7094 47.5981C39.1277 47.7415 39.5494 47.8744 39.9743 47.9967C39.8363 48.5543 39.7137 49.1157 39.6068 49.6802C38.6284 54.8747 39.3925 58.9991 41.824 60.413C44.3354 61.8729 48.5504 60.3723 52.6548 56.7556C52.9792 56.4697 53.3049 56.1665 53.6309 55.8486C54.0416 56.2481 54.4633 56.6359 54.8954 57.0117C58.8711 60.4604 62.7975 61.853 65.2269 60.4354C67.736 58.9712 68.5513 54.5403 67.4925 49.1495C67.4118 48.7378 67.3176 48.3172 67.212 47.889C67.5081 47.8009 67.7985 47.7099 68.0819 47.6152C73.4447 45.8242 76.9336 42.9285 76.9336 39.9669C76.9336 37.1272 73.6689 34.3808 68.6167 32.6275Z" fill="#53C1DE"/>
<path d="M67.4534 45.7032C67.1977 45.7885 66.9352 45.871 66.6678 45.9509C66.0757 44.0616 65.2766 42.0525 64.299 39.977C65.2321 37.9506 66.0001 35.9673 66.5756 34.0901C67.0541 34.2299 67.5186 34.3771 67.9662 34.5325C72.295 36.0345 74.9354 38.2557 74.9354 39.967C74.9354 41.7899 72.0837 44.1565 67.4536 45.7032H67.4534ZM65.5322 49.5409C66.0003 51.9246 66.0672 54.0798 65.7571 55.7646C65.4784 57.2785 64.9182 58.2877 64.2255 58.692C62.7513 59.5522 59.5986 58.434 56.1988 55.4847C55.809 55.1467 55.4163 54.7856 55.0225 54.4037C56.3406 52.9503 57.6579 51.2607 58.9435 49.3846C61.2051 49.1823 63.3415 48.8516 65.279 48.4002C65.3743 48.7883 65.4592 49.1688 65.5322 49.5409ZM46.1032 58.5434C44.6629 59.0562 43.5158 59.0708 42.8225 58.6678C41.3468 57.81 40.7336 54.498 41.5702 50.0559C41.6697 49.531 41.7836 49.0089 41.9118 48.4903C43.8278 48.9175 45.9487 49.2249 48.2156 49.4102C49.5097 51.2461 50.8651 52.9336 52.231 54.4114C51.9407 54.6945 51.6436 54.9703 51.3398 55.2387C49.5248 56.8381 47.7061 57.9726 46.1034 58.5434H46.1032ZM39.3557 45.6919C37.0747 44.906 35.191 43.8846 33.8998 42.7702C32.7397 41.7684 32.1538 40.774 32.1538 39.967C32.1538 38.25 34.6933 36.0598 38.9288 34.5711C39.4604 34.3851 39.9973 34.2148 40.5388 34.0605C41.1243 35.9798 41.8921 37.9867 42.8188 40.016C41.8801 42.0756 41.1013 44.1144 40.5105 46.0563C40.1226 45.9444 39.7376 45.8229 39.3557 45.6919ZM41.6176 30.1712C40.7384 25.6419 41.3222 22.2253 42.7914 21.368C44.3565 20.4548 47.8169 21.757 51.4642 25.0217C51.6973 25.2303 51.9315 25.4489 52.166 25.6749C50.8071 27.146 49.4642 28.8207 48.1813 30.646C45.9812 30.8516 43.8752 31.1817 41.9391 31.6239C41.8199 31.1424 41.7127 30.658 41.6176 30.171V30.1712ZM61.7955 35.1939C61.3382 34.3976 60.8639 33.6113 60.373 32.8356C61.8657 33.0255 63.2956 33.2781 64.6383 33.5871C64.2352 34.8896 63.7328 36.2516 63.1411 37.6477C62.7088 36.8208 62.2602 36.0027 61.7955 35.1939ZM53.567 27.1145C54.4886 28.121 55.4117 29.245 56.3197 30.4644C54.4779 30.3767 52.6329 30.3763 50.791 30.4632C51.6998 29.255 52.6308 28.1327 53.567 27.1145ZM45.2856 35.2077C44.8267 36.0101 44.3865 36.8232 43.9652 37.6463C43.3833 36.2549 42.8854 34.8869 42.4788 33.5659C43.8135 33.2647 45.2368 33.0187 46.7197 32.8319C46.2233 33.6124 45.7451 34.4045 45.2856 35.2077ZM46.7623 47.2459C45.2304 47.0735 43.7856 46.8399 42.4513 46.5471C42.8643 45.2027 43.3732 43.8053 43.9675 42.3841C44.3905 43.2078 44.8327 44.0214 45.2937 44.8242C45.7641 45.643 46.2538 46.4505 46.7623 47.2459ZM53.6222 52.9618C52.6751 51.9315 51.7305 50.792 50.8078 49.5663C51.7033 49.6018 52.6165 49.6198 53.5446 49.6198C54.4981 49.6198 55.4407 49.5983 56.3684 49.5565C55.4575 50.8045 54.5377 51.9457 53.6222 52.9618ZM63.1602 42.3117C63.7854 43.7483 64.3125 45.1382 64.7311 46.4599C63.3746 46.7719 61.9104 47.0232 60.3674 47.2098C60.8619 46.4196 61.3407 45.6196 61.8036 44.8102C62.2741 43.9876 62.7264 43.1545 63.1602 42.3117ZM60.0724 43.8038C59.3638 45.0447 58.6154 46.2621 57.8283 47.4539C56.4404 47.5539 55.0062 47.6054 53.5446 47.6054C52.089 47.6054 50.673 47.5597 49.3093 47.4706C48.5018 46.2815 47.7392 45.0621 47.0232 43.8149C46.3105 42.5743 45.6448 41.3069 45.0275 40.0154C45.6432 38.7235 46.3069 37.4554 47.0172 36.2138V36.2142C47.7272 34.9723 48.4838 33.7581 49.2853 32.5741C50.6765 32.4681 52.1029 32.4126 53.5448 32.4126C54.9931 32.4126 56.4214 32.4685 57.8122 32.5754C58.6055 33.7575 59.3573 34.9675 60.066 36.2031C60.7787 37.442 61.4513 38.7039 62.0826 39.9868C61.4578 41.2828 60.7874 42.556 60.0726 43.8038H60.0724ZM64.1949 21.3081C65.7612 22.2189 66.3705 25.8913 65.3863 30.7074C65.3218 31.0211 65.2517 31.3336 65.1759 31.6448C63.2353 31.1934 61.1278 30.8574 58.9214 30.6487C57.636 28.8036 56.3042 27.1259 54.9673 25.6738C55.3176 25.3333 55.6763 25.0017 56.0429 24.6792C59.4965 21.6493 62.7242 20.4531 64.1949 21.3081Z" fill="white"/>
<path d="M53.5448 35.7561C55.8518 35.7561 57.7219 37.6415 57.7219 39.967C57.7219 42.2927 55.8518 44.178 53.5448 44.178C51.2379 44.178 49.3677 42.2927 49.3677 39.967C49.3677 37.6415 51.2379 35.7561 53.5448 35.7561Z" fill="#53C1DE"/>
<path d="M98.2668 47.8742L95.6857 44.19C95.5774 44.202 95.415 44.208 95.1984 44.208H92.3465V47.8742H90V35.294H95.1984C96.2934 35.294 97.244 35.4737 98.0502 35.8331C98.8685 36.1926 99.4942 36.7077 99.9274 37.3787C100.361 38.0496 100.577 38.8464 100.577 39.7689C100.577 40.7154 100.343 41.5302 99.8733 42.2131C99.416 42.896 98.7542 43.4052 97.8878 43.7407L100.794 47.8742H98.2668ZM98.2127 39.7689C98.2127 38.9662 97.948 38.3492 97.4185 37.9178C96.889 37.4865 96.1129 37.2709 95.0901 37.2709H92.3465V42.285H95.0901C96.1129 42.285 96.889 42.0693 97.4185 41.638C97.948 41.1947 98.2127 40.5717 98.2127 39.7689Z" fill="#53C1DE"/>
<path d="M111.144 43.1297C111.144 43.2854 111.132 43.5071 111.108 43.7946H103.545C103.678 44.5015 104.021 45.0646 104.574 45.484C105.14 45.8913 105.838 46.095 106.668 46.095C107.727 46.095 108.599 45.7475 109.285 45.0526L110.495 46.4365C110.061 46.9516 109.514 47.341 108.852 47.6046C108.19 47.8682 107.444 48 106.614 48C105.555 48 104.622 47.7903 103.816 47.371C103.01 46.9516 102.384 46.3706 101.939 45.6277C101.506 44.8729 101.289 44.0223 101.289 43.0757C101.289 42.1412 101.5 41.3025 101.921 40.5597C102.354 39.8049 102.95 39.2178 103.708 38.7985C104.466 38.3791 105.32 38.1694 106.271 38.1694C107.21 38.1694 108.046 38.3791 108.78 38.7985C109.526 39.2058 110.104 39.7869 110.513 40.5417C110.934 41.2846 111.144 42.1472 111.144 43.1297ZM106.271 39.9666C105.549 39.9666 104.935 40.1823 104.43 40.6136C103.937 41.0329 103.636 41.5961 103.527 42.303H108.997C108.9 41.608 108.605 41.0449 108.112 40.6136C107.619 40.1823 107.005 39.9666 106.271 39.9666Z" fill="#53C1DE"/>
<path d="M115.827 38.1694C117.247 38.1694 118.33 38.5109 119.076 39.1938C119.834 39.8648 120.213 40.8832 120.213 42.249V47.8742H118.083V46.706C117.806 47.1254 117.409 47.4489 116.892 47.6765C116.387 47.8922 115.773 48 115.051 48C114.329 48 113.697 47.8802 113.156 47.6406C112.614 47.389 112.193 47.0475 111.892 46.6162C111.603 46.1729 111.459 45.6757 111.459 45.1245C111.459 44.2619 111.778 43.573 112.416 43.0578C113.065 42.5306 114.082 42.267 115.466 42.267H117.957V42.1232C117.957 41.4523 117.752 40.9371 117.343 40.5777C116.946 40.2182 116.35 40.0385 115.556 40.0385C115.015 40.0385 114.479 40.1224 113.95 40.2901C113.432 40.4579 112.993 40.6915 112.632 40.991L111.748 39.3556C112.253 38.9722 112.861 38.6786 113.571 38.475C114.281 38.2713 115.033 38.1694 115.827 38.1694ZM115.52 46.3646C116.086 46.3646 116.585 46.2388 117.018 45.9872C117.463 45.7236 117.776 45.3522 117.957 44.8729V43.7587H115.628C114.329 43.7587 113.679 44.184 113.679 45.0347C113.679 45.442 113.841 45.7655 114.166 46.0051C114.491 46.2448 114.943 46.3646 115.52 46.3646Z" fill="#53C1DE"/>
<path d="M126.717 48C125.718 48 124.821 47.7903 124.027 47.371C123.233 46.9516 122.613 46.3706 122.168 45.6277C121.723 44.8729 121.5 44.0223 121.5 43.0757C121.5 42.1292 121.723 41.2846 122.168 40.5417C122.613 39.7989 123.227 39.2178 124.009 38.7985C124.803 38.3791 125.706 38.1694 126.717 38.1694C127.667 38.1694 128.497 38.3611 129.207 38.7445C129.929 39.1279 130.471 39.6791 130.832 40.3979L129.099 41.4044C128.822 40.9611 128.473 40.6316 128.052 40.4159C127.643 40.1883 127.192 40.0745 126.698 40.0745C125.856 40.0745 125.158 40.35 124.605 40.9012C124.051 41.4403 123.774 42.1652 123.774 43.0757C123.774 43.9863 124.045 44.7172 124.587 45.2683C125.14 45.8074 125.844 46.077 126.698 46.077C127.192 46.077 127.643 45.9692 128.052 45.7535C128.473 45.5259 128.822 45.1904 129.099 44.7471L130.832 45.7535C130.459 46.4724 129.911 47.0295 129.189 47.4249C128.479 47.8083 127.655 48 126.717 48Z" fill="#53C1DE"/>
<path d="M137.797 47.353C137.532 47.5687 137.208 47.7304 136.823 47.8383C136.449 47.9461 136.052 48 135.631 48C134.572 48 133.754 47.7244 133.176 47.1733C132.599 46.6222 132.31 45.8194 132.31 44.7651V40.1463H130.722V38.3492H132.31V36.1566H134.566V38.3492H137.147V40.1463H134.566V44.7112C134.566 45.1784 134.681 45.5379 134.909 45.7895C135.138 46.0291 135.469 46.1489 135.902 46.1489C136.407 46.1489 136.829 46.0171 137.165 45.7535L137.797 47.353Z" fill="#53C1DE"/>
<path d="M154.28 35.294V47.8742H152.349L145.382 39.3556V47.8742H143.053V35.294H144.985L151.952 43.8126V35.294H154.28Z" fill="#53C1DE"/>
<path d="M160.229 38.1694C161.649 38.1694 162.732 38.5109 163.478 39.1938C164.236 39.8648 164.615 40.8832 164.615 42.249V47.8742H162.485V46.706C162.208 47.1254 161.811 47.4489 161.294 47.6765C160.788 47.8922 160.175 48 159.453 48C158.731 48 158.099 47.8802 157.558 47.6406C157.016 47.389 156.595 47.0475 156.294 46.6162C156.005 46.1729 155.861 45.6757 155.861 45.1245C155.861 44.2619 156.18 43.573 156.818 43.0578C157.467 42.5306 158.484 42.267 159.868 42.267H162.359V42.1232C162.359 41.4523 162.154 40.9371 161.745 40.5777C161.348 40.2182 160.752 40.0385 159.958 40.0385C159.417 40.0385 158.881 40.1224 158.352 40.2901C157.834 40.4579 157.395 40.6915 157.034 40.991L156.15 39.3556C156.655 38.9722 157.263 38.6786 157.973 38.475C158.683 38.2713 159.435 38.1694 160.229 38.1694ZM159.922 46.3646C160.488 46.3646 160.987 46.2388 161.42 45.9872C161.865 45.7236 162.178 45.3522 162.359 44.8729V43.7587H160.03C158.731 43.7587 158.081 44.184 158.081 45.0347C158.081 45.442 158.243 45.7655 158.568 46.0051C158.893 46.2448 159.345 46.3646 159.922 46.3646Z" fill="#53C1DE"/>
<path d="M172.402 47.353C172.137 47.5687 171.813 47.7304 171.427 47.8383C171.054 47.9461 170.657 48 170.236 48C169.177 48 168.359 47.7244 167.781 47.1733C167.204 46.6222 166.915 45.8194 166.915 44.7651V40.1463H165.327V38.3492H166.915V36.1566H169.171V38.3492H171.752V40.1463H169.171V44.7112C169.171 45.1784 169.286 45.5379 169.514 45.7895C169.743 46.0291 170.074 46.1489 170.507 46.1489C171.012 46.1489 171.434 46.0171 171.77 45.7535L172.402 47.353Z" fill="#53C1DE"/>
<path d="M173.356 38.2773H175.612V47.8742H173.356V38.2773ZM174.493 36.6958C174.084 36.6958 173.741 36.57 173.464 36.3184C173.187 36.0548 173.049 35.7313 173.049 35.3479C173.049 34.9645 173.187 34.647 173.464 34.3954C173.741 34.1318 174.084 34 174.493 34C174.902 34 175.245 34.1258 175.522 34.3774C175.798 34.617 175.937 34.9226 175.937 35.294C175.937 35.6893 175.798 36.0248 175.522 36.3004C175.257 36.564 174.914 36.6958 174.493 36.6958Z" fill="#53C1DE"/>
<path d="M186.696 38.2773L182.562 47.8742H180.234L176.1 38.2773H178.447L181.443 45.3941L184.53 38.2773H186.696Z" fill="#53C1DE"/>
<path d="M196 43.1297C196 43.2854 195.988 43.5071 195.964 43.7946H188.401C188.533 44.5015 188.876 45.0646 189.43 45.484C189.995 45.8913 190.693 46.095 191.524 46.095C192.583 46.095 193.455 45.7475 194.141 45.0526L195.35 46.4365C194.917 46.9516 194.369 47.341 193.708 47.6046C193.046 47.8682 192.3 48 191.469 48C190.411 48 189.478 47.7903 188.672 47.371C187.866 46.9516 187.24 46.3706 186.795 45.6277C186.361 44.8729 186.145 44.0223 186.145 43.0757C186.145 42.1412 186.355 41.3025 186.777 40.5597C187.21 39.8049 187.805 39.2178 188.563 38.7985C189.322 38.3791 190.176 38.1694 191.127 38.1694C192.065 38.1694 192.901 38.3791 193.635 38.7985C194.382 39.2058 194.959 39.7869 195.368 40.5417C195.789 41.2846 196 42.1472 196 43.1297ZM191.127 39.9666C190.405 39.9666 189.791 40.1823 189.285 40.6136C188.792 41.0329 188.491 41.5961 188.383 42.303H193.852C193.756 41.608 193.461 41.0449 192.968 40.6136C192.474 40.1823 191.861 39.9666 191.127 39.9666Z" fill="#53C1DE"/>
</svg>

<svg xmlns="http://www.w3.org/2000/svg" width="224" height="80" fill="none" xmlns:v="https://vecta.io/nano"><path d="M27.156 39.948c0 4.01 3.884 7.754 10.008 9.864-1.223 6.206-.219 11.208 3.134 13.157 3.446 2.004 8.58.617 13.452-3.677 4.75 4.121 9.55 5.742 12.9 3.787 3.443-2.009 4.49-7.35 3.233-13.75 6.378-2.126 9.946-5.318 9.946-9.381 0-3.917-3.891-7.306-9.933-9.402 1.353-6.664.207-11.545-3.285-13.575-3.366-1.957-8.222-.251-13.042 3.977-5.014-4.488-9.822-5.858-13.31-3.823-3.363 1.962-4.322 7.056-3.096 13.376-5.917 2.08-10.008 5.545-10.008 9.446z" fill="#fff"/><path d="M68.617 32.627l-1.506-.478.233-1.035c1.14-5.578.395-10.072-2.151-11.551-2.44-1.419-6.431.061-10.462 3.597a31.37 31.37 0 0 0-1.165 1.077 28.55 28.55 0 0 0-.775-.722c-4.224-3.781-8.459-5.374-11.001-3.891-2.438 1.423-3.16 5.647-2.134 10.934a31.77 31.77 0 0 0 .346 1.562 30.82 30.82 0 0 0-1.731.549c-4.952 1.741-8.115 4.469-8.115 7.298 0 2.923 3.395 5.854 8.554 7.631.418.143.84.276 1.265.399-.138.558-.261 1.119-.367 1.684-.978 5.194-.214 9.319 2.217 10.733 2.511 1.46 6.726-.041 10.831-3.657.324-.286.65-.589.976-.907a30.82 30.82 0 0 0 1.265 1.163c3.976 3.449 7.902 4.841 10.331 3.424 2.509-1.464 3.324-5.895 2.266-11.286-.081-.412-.175-.832-.281-1.261.296-.088.587-.179.87-.274 5.363-1.791 8.852-4.687 8.852-7.648 0-2.84-3.265-5.586-8.317-7.339z" fill="#53c1de"/><path d="M67.453 45.703l-.786.248c-.592-1.889-1.391-3.898-2.369-5.974.933-2.026 1.701-4.01 2.277-5.887l1.391.442c4.329 1.502 6.969 3.723 6.969 5.435 0 1.823-2.852 4.19-7.482 5.736h0zm-1.921 3.838c.468 2.384.535 4.539.225 6.224-.279 1.514-.839 2.523-1.532 2.927-1.474.86-4.627-.258-8.027-3.207l-1.176-1.081c1.318-1.453 2.635-3.143 3.921-5.019 2.262-.202 4.398-.533 6.335-.984l.253 1.141zm-19.429 9.002c-1.44.513-2.587.527-3.281.124-1.476-.858-2.089-4.17-1.252-8.612l.342-1.566c1.916.427 4.037.735 6.304.92 1.294 1.836 2.649 3.523 4.015 5.001l-.891.827c-1.815 1.599-3.634 2.734-5.236 3.305h0zm-6.748-12.852c-2.281-.786-4.165-1.807-5.456-2.922-1.16-1.002-1.746-1.996-1.746-2.803 0-1.717 2.54-3.907 6.775-5.396l1.61-.511c.585 1.919 1.353 3.926 2.28 5.956-.939 2.06-1.718 4.098-2.308 6.04l-1.155-.364zm2.262-15.521c-.879-4.529-.295-7.946 1.174-8.803 1.565-.913 5.025.389 8.673 3.654l.702.653c-1.359 1.471-2.702 3.146-3.985 4.971-2.2.206-4.306.536-6.242.978l-.322-1.453h0zm20.178 5.023l-1.422-2.358 4.265.752a43.18 43.18 0 0 1-1.497 4.061l-1.346-2.454zm-8.228-8.079c.922 1.006 1.845 2.131 2.753 3.35l-5.529-.001 2.776-3.349zm-8.281 8.093l-1.32 2.439-1.486-4.08a44.75 44.75 0 0 1 4.241-.734l-1.434 2.376zm1.477 12.038l-4.311-.699a45.42 45.42 0 0 1 1.516-4.163l1.326 2.44 1.469 2.422zm6.86 5.716a45.19 45.19 0 0 1-2.814-3.395l2.737.053 2.824-.063-2.746 3.405zm9.538-10.65l1.571 4.148a42.11 42.11 0 0 1-4.364.75l1.436-2.4 1.357-2.498zm-3.088 1.492l-2.244 3.65-4.284.152c-1.456 0-2.872-.046-4.235-.135l-2.286-3.656-1.996-3.8 1.99-3.802h0l2.268-3.64 4.26-.162 4.267.163 2.254 3.628 2.017 3.784-2.01 3.817h0zm4.123-22.496c1.566.911 2.176 4.583 1.191 9.399l-.21.937c-1.941-.451-4.048-.787-6.254-.996-1.285-1.845-2.617-3.523-3.954-4.975l1.076-.995c3.454-3.03 6.681-4.226 8.152-3.371z" fill="#fff"/><g fill="#53c1de"><path d="M53.545 35.756c2.307 0 4.177 1.885 4.177 4.211s-1.87 4.211-4.177 4.211-4.177-1.885-4.177-4.211 1.87-4.211 4.177-4.211zm44.722 12.118l-2.581-3.684a4.82 4.82 0 0 1-.487.018h-2.852v3.666H90v-12.58h5.198c1.095 0 2.046.18 2.852.539.818.359 1.444.875 1.877 1.546s.65 1.468.65 2.39c0 .947-.234 1.761-.704 2.444-.457.683-1.119 1.192-1.986 1.528l2.906 4.134h-2.527zm-.054-8.105c0-.803-.265-1.42-.794-1.851s-1.306-.647-2.328-.647h-2.744v5.014h2.744c1.023 0 1.799-.216 2.328-.647.529-.443.794-1.066.794-1.869zm12.931 3.361a8.59 8.59 0 0 1-.036.665h-7.563a2.66 2.66 0 0 0 1.029 1.689c.566.407 1.264.611 2.094.611 1.059 0 1.931-.347 2.617-1.042l1.21 1.384a4.08 4.08 0 0 1-1.643 1.168c-.662.264-1.408.395-2.238.395-1.059 0-1.992-.21-2.798-.629a4.62 4.62 0 0 1-1.877-1.743c-.433-.755-.65-1.605-.65-2.552 0-.934.211-1.773.632-2.516a4.58 4.58 0 0 1 1.787-1.761c.758-.419 1.612-.629 2.563-.629.939 0 1.775.21 2.509.629a4.25 4.25 0 0 1 1.733 1.743c.421.743.631 1.605.631 2.588zm-4.873-3.163c-.722 0-1.336.216-1.841.647-.493.419-.794.983-.903 1.689h5.47c-.097-.695-.392-1.258-.885-1.689s-1.107-.647-1.841-.647zm9.556-1.798c1.42 0 2.503.341 3.249 1.024.758.671 1.137 1.689 1.137 3.055v5.625h-2.13v-1.168c-.277.419-.674.743-1.191.97-.505.216-1.119.324-1.841.324s-1.354-.12-1.895-.359c-.542-.252-.963-.593-1.264-1.024a2.67 2.67 0 0 1-.433-1.492c0-.863.319-1.551.957-2.067.649-.527 1.666-.791 3.05-.791h2.491v-.144c0-.671-.205-1.186-.614-1.545-.397-.359-.993-.539-1.787-.539a5.29 5.29 0 0 0-1.606.252c-.518.168-.957.401-1.318.701l-.884-1.635c.505-.383 1.113-.677 1.823-.881s1.462-.306 2.256-.306zm-.307 8.195c.566 0 1.065-.126 1.498-.377a2.14 2.14 0 0 0 .939-1.114v-1.114h-2.329c-1.299 0-1.949.425-1.949 1.276a1.14 1.14 0 0 0 .487.97c.325.24.777.36 1.354.36zM126.717 48c-.999 0-1.896-.21-2.69-.629s-1.414-1-1.859-1.743c-.445-.755-.668-1.605-.668-2.552s.223-1.791.668-2.534a4.68 4.68 0 0 1 1.841-1.743c.794-.419 1.697-.629 2.708-.629.95 0 1.78.192 2.49.575a3.73 3.73 0 0 1 1.625 1.653l-1.733 1.007c-.277-.443-.626-.773-1.047-.989-.409-.228-.86-.341-1.354-.341-.842 0-1.54.276-2.093.827-.554.539-.831 1.264-.831 2.174s.271 1.642.813 2.193c.553.539 1.257.809 2.111.809.494 0 .945-.108 1.354-.323a2.8 2.8 0 0 0 1.047-1.006l1.733 1.006c-.373.719-.921 1.276-1.643 1.671-.71.383-1.534.575-2.472.575z"/><path d="M137.797 47.353c-.265.216-.589.377-.974.485-.374.108-.771.162-1.192.162-1.059 0-1.877-.276-2.455-.827s-.866-1.354-.866-2.408v-4.619h-1.588v-1.797h1.588v-2.193h2.256v2.193h2.581v1.797h-2.581v4.565c0 .467.115.827.343 1.078.229.24.56.359.993.359.505 0 .927-.132 1.263-.395l.632 1.599zm16.483-12.059v12.58h-1.931l-6.967-8.519v8.519h-2.329v-12.58h1.932l6.967 8.519v-8.519h2.328zm5.949 2.875c1.42 0 2.503.341 3.249 1.024.758.671 1.137 1.689 1.137 3.055v5.625h-2.13v-1.168c-.277.419-.674.743-1.191.97-.506.216-1.119.324-1.841.324s-1.354-.12-1.895-.359c-.542-.252-.963-.593-1.264-1.024a2.67 2.67 0 0 1-.433-1.492c0-.863.319-1.551.957-2.067.649-.527 1.666-.791 3.05-.791h2.491v-.144c0-.671-.205-1.186-.614-1.545-.397-.359-.993-.539-1.787-.539a5.29 5.29 0 0 0-1.606.252c-.518.168-.957.401-1.318.701l-.884-1.635c.505-.383 1.113-.677 1.823-.881s1.462-.306 2.256-.306zm-.307 8.195c.566 0 1.065-.126 1.498-.377a2.14 2.14 0 0 0 .939-1.114v-1.114h-2.329c-1.299 0-1.949.425-1.949 1.276a1.14 1.14 0 0 0 .487.97c.325.24.777.36 1.354.36zm12.48.989c-.265.216-.589.377-.975.485a4.27 4.27 0 0 1-1.191.162c-1.059 0-1.877-.276-2.455-.827s-.866-1.354-.866-2.408v-4.619h-1.588v-1.797h1.588v-2.193h2.256v2.193h2.581v1.797h-2.581v4.565c0 .467.115.827.343 1.078.229.24.56.359.993.359.505 0 .927-.132 1.263-.395l.632 1.599zm.954-9.076h2.256v9.597h-2.256v-9.597zm1.137-1.581c-.409 0-.752-.126-1.029-.377-.277-.264-.415-.587-.415-.97a1.23 1.23 0 0 1 .415-.953c.277-.264.62-.395 1.029-.395s.752.126 1.029.377a1.16 1.16 0 0 1 .415.917 1.37 1.37 0 0 1-.415 1.006c-.265.264-.608.395-1.029.395zm12.203 1.581l-4.134 9.597h-2.328l-4.134-9.597h2.347l2.996 7.117 3.087-7.117h2.166zM196 43.13a8.59 8.59 0 0 1-.036.665h-7.563a2.65 2.65 0 0 0 1.029 1.689c.565.407 1.263.611 2.094.611 1.059 0 1.931-.347 2.617-1.042l1.209 1.384c-.433.515-.981.904-1.642 1.168S192.3 48 191.469 48c-1.058 0-1.991-.21-2.797-.629a4.62 4.62 0 0 1-1.877-1.743c-.434-.755-.65-1.605-.65-2.552 0-.934.21-1.773.632-2.516.433-.755 1.028-1.342 1.786-1.761s1.613-.629 2.564-.629c.938 0 1.774.21 2.508.629a4.24 4.24 0 0 1 1.733 1.743c.421.743.632 1.605.632 2.588zm-4.873-3.163c-.722 0-1.336.216-1.842.647-.493.419-.794.983-.902 1.689h5.469c-.096-.695-.391-1.258-.884-1.689s-1.107-.647-1.841-.647z"/></g></svg>
